X: 7
T: The Old Torn Petticoat
R: reel
M: 4/4
L: 1/8
K: Ador
cABG AGEF|~G2BG dGBd|cABG AGEF|GABG ~A2AB|
cABG AGEF|~G2GB dG (3Bcd|cABG AGEF|GABG ~A2AB||
cdef g2eg|aged cA~A2|(3Bcd ed gedg|eaag abga|
bg~g2 agef|gedc BG~G2|cABG AGEF|GABG ~A2AB:|


Tune 368	Setting 13173

